X: 8
T: Jenny Picking Cockles
Z: Zach Burky
S: https://thesession.org/tunes/202#setting48302
R: reel
M: 4/4
L: 1/8
K: Dmix
|:Add^c AGEF|GEcE dEcE|Add^c AGEF|GEcE EDD2|
Add^c AGEF|~G2AB c3d|edd^c AGEF|GEcE EDD2:|
|:~f3d efed|^cAAB cdeg|~f3d ed^cd|eaag edde|
~f3d efed|^cAAB ~=c3d|edd^c AGEF|GEcE EDD2:|

